X: 18723
T: Ice And Fire
R: waltz
M: 3/4
K: Eminor
M:6/8
V:1
"Em"z12|z12|"E"z12|z12|
V:2
B2E2GA B2E2GA|B2E2GA B2E2GA|B2E2^GA B2E2^GA|B2E2^GA B2E2^GA|
V:1
|:"Em"B6 E6|GAB4 E4GA|"Bm"F12-|F12|
V:2
|:z12|z12|f2B2de f2B2de|f2B2de f2B2de|
V:1
"D"A6 D6|GFA4 D6|"Am"GFE4-E6-|E12:|
V:2
z12|z12|e2B2cd e2B2cd|e2B2cd e2B2cd:|
V:1
"Em"B6 E6|GAB4 E4GA|"Bm"F12-|F12|
V:2
z12|z12|f2B2de f2B2de|f2B2de f2B2de|
V:1
"D"A6 D6|(2 F2G2 (2F2D2|"Am"E12-|E12|
V:2
z12|z12|e2B2cd e2B2cd|e2B2cd e2B2cd|
V:1
|:"C"e12|"G"d12|"Am"E12|"Em"B12|
V:2
|:e2G2cd e2G2ce|d2G2Bc d2G2Bd|c2E2AB c2E2Ac|B2E2GA B2E2GA|
V:1
"C"C12|1 "D"G6 A6|"Em"B12-|B12:|
V:2
G2C2EF G2C2FG|A2D2AG F2D2GF|e2B2cd e2B2cd|e2B2cd e2B2cd:|
V:1
[2 "D"G6 F6|"Em"E12-|E12:|
V:2
A2D2AG F2D2GF|e2B2cd e2B2cd|e2B2cd e2B2cd:|

